X:1
T:Title
%%score { ( 1 3 ) | ( 2 4 ) }
L:1/8
Q:1/4=84
M:6/8
K:F
V:1 treble nm="Grand Piano"
V:3 treble 
V:2 treble 
V:4 treble 
V:1
 A>BA c2 c | G>AG B2 B | F2 F [DFG]2 [CEG] | [CFA]2 .[DGc] [FA]2 G | A>BA c2 [CFc] | %5
w: W.~A.~Mozart * * * *|||||
 [B,EG]>[CEA][B,EG] [EB]2 B | z D[EG] [CFA]2 [DGB] |[M:7/4] [CFA]2 [B,EG] [A,F]3 z2 z2 z4 | %8
w: |||
[M:3/4] [B,DF]3 [A,CF]3 |] %9
w: |
V:2
 [F,CF]>[F,DF][F,CF] [A,CF]2 [A,CF] | [CE]>[CE][K:bass][B,CE] [G,CE]2 [E,G,C] | %2
 [F,A,C]2 [D,A,D] B,,2 C, | F,2 z/[K:treble] B/[K:bass] z2 E | [F,CF]>[F,DF][F,CF] [F,A,F]2 A,, | %5
 C,>C,C, [C,G,]2 [E,G,C] | .[F,C]3 z3 |[M:7/4] C,2 C, F,3 z2 z2 z4 |[M:3/4] B,,3 F,,3 |] %9
V:3
 x6 | x6 | x6 | z3 C3 | x6 | x6 | .F3 z3 |[M:7/4] x14 |[M:3/4] x6 |] %9
V:4
 x6 | x2[K:bass] x4 | x6 | z2 B,,[K:treble][K:bass] C,3 | x6 | x6 | A,-[D,A,][C,C] [F,,F,]2 B,, | %7
[M:7/4] x14 |[M:3/4] x6 |] %9

